X:1
T:Dedicado a Jos
C:Martin Racine
R:reel
M:C|
K:Bm
"F#"F4|:"Bm"B2Bc d2e2   |fgfd Bfff |"F#m"fgfd cfff  |"Bm"fgfd  B2F2|
"Bm"B2Bc d2e2 |fgfd Bfff |"F#m"fgfed2 c2 |1"Bm"B4 "F#"F4 :|2"Bm"B4"A"A4||
|:"D"f2df dfdf|"G"g2dg "(G#dim)" d^gdg|a2>a2a2a2-|"A"a2 g2 (3fgf e2|
"A"a2>a2a2a2-|"A"a2 g2 (3fgf e2|1"D"f2 df dfdf|"A"cf cf Bf A2:|2"D"d2AA "A"BABc | "D"d4|]
T:Point Au Pic
M:4/4
L:1/8
K:C
geg|\
"C"dgcgBgAB|GG G2zgeg|dgcgBgAc|"G"BBB2zg^fg|
"G"f2d2dcAc|"G7"~BAB2zg^fg|ag^fg agec|"C"G4zgeg|
"C"dgcgBgAB|GGG2zgeg|"C7"d2(3cdc (3BcB A2|"F"[F6A6a6]AB|
"F"ccc2"D7"d2cd|"C"ece2"A7"a2 (3aba|"D7"g2f2- "G7"fdAB|"C"c4-c||
dcB|\
"Am"A2-AB cBcd|ea~ag abag|"(D)"ea~ag abag|"(Am)"ea~ag abaz|
"G"G2-GA BGBc|~g3z2dBd|~g3z2dBd|"G7"g2 (3fgf edcB|
"Am"A2-AB cBcd|"(Fmaj7)"ea~ag abag|"(D9)"ea~ag abag|"(Fmaj7)"ea2ga2a2|
"F7/Ddim"c'3c'-c'2ef|"C"g^fga "A7"gecd|"D7"egag- "G7"ged2|"C"c4-c|]
